X: 16278
T: Grey Mare's Tail, The
R: reel
M: 4/4
K: Gminor
d|g2 (dB) cBAc|BAGB AD^FA|g2 (dB) cdec|dBAc BGG:|
D|(GB)d^f g2 dg|(fd)cB (AB)cA|GBd^f gabg|dg^fa gGGD|
(GB)d^f g2 dg|(=ef)cf (Ac)fa|gabg dcBA|1 AG^FA BGG:|2 BG^FA GG,G,||

